!!!SOCIAL_FUNCTION:	bird dance songs
!!!PDT:	1956
!!!OTL: No_78_Bird_Dance_Song_(a).krn
!!!LANG: Non-Tone
!!!LING_GROUP: Muskogean
!!!REG: Florida
**kern
*staff1
=1-
*clefF4
*k[b-e-a-d-g-]
*M3/4
8.F\L
16F\Jk
8.F\L
16A-\Jk
4F\
=2||
*M2/4
8.D-\L
16D-\Jk
8.D-\L
16D-\Jk
=3
4D-\
4r
=4!|:
8.D-\L
16D-\Jk
8.D-\L
16D-\Jk
=5||
*M3/4
8.A-\L
16A-\Jk
(12A-\L
12G-\)
12F\J
8F\L
8F\J
=6
8.A-\L
16G-\Jk
8.F\L
16D-\Jk
8D-\L
8D-\J
=7
8.F\L
16G-\Jk
8.F\L
16D-\Jk
8D-\L
16D-\Jk
16r
=8||
*M2/4
4D-\
(8D-/L
8AA-/J)
=9
2D-\
=10||
*M3/4
(16A-\LK
8F\)
16G-\Jk
8.F\L
16D-\Jk
8D-\L
8D-\J
=11
8.F\L
16G-\Jk
8.F\L
16D-\Jk
8D-\L
16D-\Jk
16r
=12||
*M2/4
4D-\
(8D-/L
8AA-/J)
=13||
*M3/4
4..D-\
16A-\
8.A-\L
16B-\Jk
=14||
*M2/4
(4..A-\
16F\)
=15
8.F\L
16G-\Jk
4F\
=16
8D-\L
8D-\J
8.D-\L
16D-\Jk
=17
4D-\
4r
=18:|!
4D-\
4r
==
*-
